X:1
T: Noran Kista
C:
R:Jig
Q:180
K:Bb
M:6/8
L:1/16
|:B2|B4c2 e4B2|e4c2 d4B2|B4c2 d4B2|A,6 C4F,2|
B4c2 e4B2|e4c2 d4B2|d2e2f2 e4c2|B6-B4:|
|:e2|d2c2B2 A4G2|F4G2 F4e2|d2c2B2 A4F2|G6e4e2|
d2c2B2 A4G2|F4G2 F4e2|d2e2f2 F4A2|B6-B4:|
